!!!!SEGMENT: pl-wn--bj-muz-8812-iii--002_zelenski-wladyslaw--sonate-op-20-adagio.krn
!!!cenid: 18xx:3692
!!!COM: Żeleński, Władysław
!!!COM-rismid: pe41024455
!!!CDT:
!!!CNT:
!!!OPR: Sonate op. 20
!!!OTL: Adagio
!!!OMV: 002
!!!PDT:
!!!AGN:
!!!SMS-siglum: PL-Wn
!!!SMS-shelfmark: BJ Muz. 8812 III
!!!SMS-shelfwork: M
!!!SMS-variant:
!!!SMS-altvar:
!!!NIFC-rismid:
!!!URL-scan: https://polona.pl/item/sonate-fur-pianoforte-op-20,ODQ3MjQzNDE/0/#item
!!!ONB-nifc: UWAGA: części Sonaty: 1. Allegro con moto, 2. Adagio, 3. Scherzo, 4. Allegro moderato
!!!OMD: Adagio.
!!!key: C
**kern	**kern	**dynam
*part1	*part1	*part1
*staff2	*staff1	*
*I"Pianoforte	*I"Pianoforte	*
*Ipiano	*Ipiano	*
*ICklav	*ICklav	*
*clefF4	*clefG2	*
*k[]	*k[]	*
*C:	*C:	*
*M3/8	*M3/8	*
*MM63	*MM63	*
*>[A,A,B,C,C,D,D,E,E,F,F1,F,F2,G,H,H1,H,H2,I,I,J]	*>[A,A,B,C,C,D,D,E,E,F,F1,F,F2,G,H,H1,H,H2,I,I,J]	*
*>A	*>A	*
8r	8G/	p
=1	=1	=1
(4C/	(>4E/ 4G 4e	.
8BB/	8D/ 8G 8d	.
=2	=2	=2
8AA/L	8F/L 8c 8f	<
8GG/	8E/ 8c 8e	.
8FF/J)	8A/J) 8c 8a	.
=3	=3	=3
*	*^	*
(4EE/	(4g/	16c\LL	.
.	.	16G\	.
.	.	16G#X\	.
.	.	16A\	.
8DD/)	8f/)	16A#X\	.
.	.	16B\JJ	[
*	*v	*v	*
=4	=4	=4
(8CC/L	(8B/L 8f	>
8C/	8c/) 8e	.
8BB/J)	8G#X/J 8d 8e	]]
=5	=5	=5
(8AA/L	(8c/L 8e 8cc	<
8GG#X/	8B/ 8e 8b	.
8AA/J	8c/J 8e 8cc	.
=6	=6	=6
8GGn/L	8E-X/L 8c 8e-X	.
8FF#X/	8D/ 8c 8d	.
8EE/J)	8G/J) 8c 8g	[[
=7	=7	=7
*	*^	*
8EE-X\	8.AA</L 8.A<	4G<\	sf >
4DD\	.	.	.
.	16BB</L 16B<	.	.
.	16C</ 16c<	8F#X<\	.
.	16D</JJ 16d<	.	]]
*	*v	*v	*
=	=	=
8GGG\L	(>8C</L 8F#X< 8d<	.
8GG\J	8BB</J) 8G<	.
!!LO:LB:g=original
=8:|!	=8:|!	=8:|!
*>B	*>B	*
8r	8g/	.
=9	=9	=9
*	*^	*
!	!LO:TX:a:i:t=con gran espressione	!	!
8r	(4f/	8r	.
(8G'\L	.	8B-X\L 8c#X	.
8G'\J)	16e/LL	8B-\J 8c#	.
.	16b-X/JJ	.	.
=10	=10	=10	=10
(8F/L	8.b-X:/L	(>8G:\L 8c#X:	.
16FF/Jk)	.	16A\Jk) 16d	.
16r	16a/L	16r	.
8r	16f/	8r	.
.	16d/JJ)	.	.
*	*v	*v	*
=11	=11	=11
*^	*	*
8r	8r	(>4c/	.
(8F#X'/L 8G	8D\L	.	.
8F#'/J) 8G	8D\J	16B/LL	.
.	.	16f/JJ	.
=12	=12	=12	=12
!	!	!LO:TX:t=P:problem:klamra	!
(8D:/L 8G#X:	8C:\L	8.f:/L	.
16E/Jk) 16A	16CC\Jk	.	.
16rA	16rAA	16e/L	.
8rA	8rAA	16c/	.
.	.	16A/JJ	.
*v	*v	*	*
=13	=13	=13
8r	8e/L)	.
!	!	!LO:HP:a
(8BB/L	(8A/ 8d#X	<
8BB-X/J	8G/J 8dn 8g	.
=14	=14	=14
8AA/L	8G/L 8c#X	.
8AA-X^/	8Fn^>/ 8cn 8fn	.
8GG/J)	8E/J) 8c 8e	[[
=15	=15	=15
*	*^	*
!	!	!	!LO:DY:a
(<16FF#X\LL	(>8.D</L 8.d	4c\	sf >
16AA\JJ	.	.	.
8GG\L	.	.	.
.	16E</L 16e	.	.
8GGG\J)	16F</ 16f	8B\	.
.	16G</JJ) 16g	.	.
*	*v	*v	*
=16	=16	=16
8CC\L	(>8F</L 8B 8g	.
8C\J	8E</J) 8c	.
8r	8g/	]
!!LO:LB:g=original
=17	=17	=17
*	*^	*
!	!LO:TX:b:i:t=sotto voce	!	!
8r	(>4f/	8r	.
(8G'\L	.	8B-X\L 8c#X	.
8G'\J)	16e/LL	8B-\J 8c#	.
.	16b-X/JJ	.	.
=18	=18	=18	=18
(8F/L	8.b-X:/L	(8G:\L 8c#X:	.
16FF/Jk)	.	16A\Jk) 16d	.
16r	16a/L	16r	.
8r	16f/	8r	.
.	16d/JJ)	.	.
*	*v	*v	*
=19	=19	=19
*^	*	*
8r	8r	(4c/	.
(8F#X'/L 8G	8D\L	.	.
8F#'/J) 8G	8D\J	16B/LL	.
.	.	16f/JJ	.
=20	=20	=20	=20
!	!	!LO:TX:t=P:problem:klamra	!
(8D:/L 8G#X:	(>8C:\L	8.f:/L	.
16E/Jk) 16A	16CC\Jk)	.	.
16r	16r	16e/L	.
8r	8r	16c/	.
.	.	16A/JJ	.
*v	*v	*	*
=21	=21	=21
*	*	*^
8r	8e/L)	.	.
!	!	!	!LO:HP:b=2
(8BB\L	(8A/ 8d#X	<	<
8BB-X\J	8G/J 8dn 8g	.	.
=22	=22	=22	=22
8AA\L	8G/L 8c#X	.	.
8AA-X\	8Fn^>/ 8cn 8fn	.	.
8GG\J)	8E/J) 8c 8e	[[	[[
*	*	*v	*v
=23	=23	=23
*	*^	*
(<16FF#X\LL	8.D</L 8.d	4c\	sf >
16AA\JJ	.	.	.
8GG\L	.	.	.
.	16E</L 16e	.	.
8GGG\J)	16F</ 16f	8B\	.
.	16G</JJ 16g	.	.
*	*v	*v	*
=24	=24	=24
8CC\L	(>8F</L 8B 8g	.
8C\J	8E</J) 8c	.
8r	[8G/	]
!!LO:LB:g=original
=25||	=25||	=25||
*MM80	*MM80	*
*	*^	*
!	!LO:TX:a:t=un poco più mosso	!	!
!	!LO:TX:a:i:t=e legatissimo	!	!LO:DY:a
(<16CC/LL	4e/	4G\_	pp
16EE/	.	.	.
16DD/	.	.	.
16CC/	.	.	.
16BBB/	[>8d/	16G\LL]	.
16BBB-X/JJ	.	16E\JJ	.
=26	=26	=26	=26
16AAA/LL	16d/LL]	8F\L	<
16AAA-X/	16c/	.	.
16GGG/)	16f/	8G\ 8B-X	.
(>16D-X/	16e/	.	.
16C/	16b/	8c\J 8e-X	.
16FF#X/JJ	16a/JJ	.	.
=27	=27	=27	=27
16FFn/KL	16a/LL	8Bn\ 8d	.
8EE/	16g#X/JJ	.	.
.	8.gn/L	[4c\	.
16EE-X/L	.	.	.
16DD/	.	.	.
16AA-X/JJ	16f#X/Jk	.	[[
=28	=28	=28	=28
!	!	!LO:TX:t=P:problem:mixed beam	!LO:HP:a
16GG\LL	8fn/L	16c\LL]	>
16DD-X\	.	16B\	.
16CC\)	8e/	16c\	.
(<16Dn\	.	16E</	.
16C\	8d/J 8e	16F#X</	.
16BB\JJ	.	16G#X</JJ	]
*	*v	*v	*
=29	=29	=29
!	!	!LO:HP:t=crescendo poco a poco
8.AA/L)	(>16c/LL 16e 16cc	<
.	16B/JJ 16e 16b	.
.	4c/) 4e 4cc	.
16AAA/L 16AA	.	.
16GGG#X/ 16GG#X	.	.
16AAA/JJ 16AA	.	.
=30	=30	=30
8.GGGn/L 8.GGn	(16E-X/LL 16c 16e-X	.
.	16D/JJ 16c 16d	.
.	4E-/ 4c 4e-	.
(16GGG/L 16GG	.	.
16FFF#X/ 16FF#X	.	.
16GGG/JJ 16GG	.	.
!!LO:LB:g=original
=31	=31	=31
16FFF#X/LL 16FF#X	16D/KL) 16c 16d	.
16FFFn/ 16FFn	8d/J 8g#X 8dd	.
16EEE/) 16EE	.	.
16EEE-X/ 16EE-X	(16c/LL 16gn 16cc	.
16DDD/ 16DD	16d'/ 16f#X 16b	.
[16DD/JJ [16D	16c'/JJ 16f# 16a	.
=32	=32	=32
16DD/KL] 16D]	8c/L 8f#X 8dd	.
(<8GGG/	.	.
.	16B/Jk) 16g	.
16FFn/L	16r	.
16EE/	[8G/	.
16DD/JJ	.	.
=33	=33	=33
*	*^	*
!	!	!	!LO:HP:a
16CC/LL	4G/] 4e	4ryy	<
16EE/	.	.	.
16DD/	.	.	.
16CC/	.	.	.
16BBB/	[8d/	16G\LL	.
16BBB-X/JJ	.	16E\JJ	.
=34	=34	=34	=34
16AAA/LL	16d/LL]	8F\L	.
16AAA-X/	16c/	.	.
16GGG/)	16f/	8G\ 8B-X	.
(16D-X/	16e/	.	.
16C/	16b/	8c\J 8e-X	.
16FF#X/JJ	16a/JJ	.	.
=35	=35	=35	=35
16FFn/KL	16a/LL	8Bn\ 8d	.
8EE/	16g#X/JJ	.	.
.	8.gn/L	[4c\	.
16EE-X/L	.	.	.
16DD/	.	.	.
16AA-X/JJ	16f#X/Jk	.	.
=36	=36	=36	=36
!	!LO:TX:t=P:problem:mixed beam	!	!
16GG\LL	8fn/L	16c\LL]	[
16DD-X\	.	16B\	.
16CC\)	8e/	16c\	.
(<16Dn\	.	16E</	.
16C\	8d/J 8e	16F#X</	.
16BB\JJ	.	16G#X</JJ	.
*	*v	*v	*
=37	=37	=37
!	!LO:TX:b:i:t=sempre più	!
8.AA/L)	(>16c/LL 16e 16cc	.
.	16B/JJ 16e 16b	.
.	4c/) 4e 4cc	.
16AAA/L 16AA	.	.
16GGG#X/ 16GG#X	.	.
16AAA/JJ 16AA	.	.
!!LO:LB:g=original
=38	=38	=38
!	!LO:TX:b:t=forte_ _ _:ext=ud:problem:dynamics with extention lines	!LO:DY:t=forte_ _ _:ext=ud
8.GGGn/L 8.GGn	(>16E-X/LL 16c 16e-X	f
.	16D/JJ 16c 16d	.
.	4E-/ 4c 4e-	.
(16GGG/L 16GG	.	.
16FFF#X/ 16FF#X	.	.
16GGG/JJ 16GG	.	.
=39	=39	=39
16FFF#X/LL 16FF#X	16D/KL) 16c 16d	.
16FFFn/ 16FFn	8d/ 8g#X 8dd	.
16EEE/) 16EE	.	.
(16EEE-X/ 16EE-X	(16c'/L 16gn 16cc	.
16DDD/ 16DD	16d'/ 16f#X 16b	.
[16DD/JJ [16D	16c'/JJ) 16f# 16a	.
=40	=40	=40
16DD/KL]) 16D]	(8c/L 8f#X 8dd	.
(8GGG/	.	.
.	16B/Jk) 16g	.
16DD/L	16r	.
16GG/	8r	.
16D/JJ)	.	.
=41	=41	=41
*^	*	*
*clefG2	*clefG2	*	*
!	!	!LO:TX:b:i:t=molto espressivo	!
(>16G/LL	4.G\	8.r	.
16g/	.	.	.
16f/	.	.	.
16e/	.	(16gg\LL	.
16d/	.	16ff\	.
[>16c#X/JJ	.	16ee\JJ	.
=42	=42	=42	=42
16c#/LL]	8.A\	8.bb-X\L	.
16e/	.	.	.
16d/JJ)	.	.	.
16r	8.ryy	16aa\L	.
8r	.	16ff\	.
.	.	16dd\JJ)	.
*clefF4	*clefF4	*	*
=43	=43	=43	=43
(>16D/LL	4.D\	8.r	.
16d/	.	.	.
16c/	.	.	.
16B/	.	(>16dd\LL	.
16A/	.	16cc\	.
[>16G#X/JJ	.	16b\JJ	.
=44	=44	=44	=44
16G#/LL]	8.C\	8.ff\L	.
16B/	.	.	.
16A/JJ)	.	.	.
16r	8.ryy	16ee\L	.
8r	.	16cc\	.
.	.	16a\JJ)	.
*v	*v	*	*
!!LO:PB:g=original
=45	=45	=45
*	*^	*
!	!	!	!LO:HP:t=crescendo molto
16r	[>16e/LL	16ryy	<
(<16C/LL	16e/]	8A\	.
16BB/	(16d#X/	.	.
16BB-X/	16G/ 16c#X 16e	8.ryy	.
16AA/	16A/ 16dn 16f	.	.
16GG/JJ	16B-X/JJ 16e 16g	.	.
=46	=46	=46	=46
16FF/LL	8A/L 8a	16e\LL	.
16F/	.	16d\JJ	.
16E/	16B/L) 16e 16g#X	4ryy	.
16D#X/	(>16c~/ 16f#X 16a	.	.
16Dn/	16fn~/ 16g#X 16b	.	.
16C/JJ	16f~/JJ 16g# 16cc	.	.
=47	=47	=47	=47
16BB/LL)	4ryy	16f~\LL) 16g#X 16dd	.
(16BBB-X/ 16BB-X	.	(>[<16gn~\ [>16cc#X 16ee	.
16AAA/) 16AA	.	16g~\]) 16cc#] 16gg	.
(16AAA-X/ 16AA-X	.	(16f~>^^\ 16ccn 16ff	.
16GGG/) 16GG	8b/	16g~>\ 16ee	.
[16GG/JJ [16G	.	16f~>\JJ) 16dd	.
*	*v	*v	*
=48	=48	=48
16GG/KL] 16G]	(8f\L 8b 8gg	.
(8CC/J	.	.
.	16e\Jk) 16cc	.
16GG/LL	16r	>
16C/	8r	]]
16G/JJ)	.	.
*clefG2	*	*
=49	=49	=49
*^	*	*
!	!	!LO:TX:b:i:t=dolce	!
(<16G/LL	4.G\	8.r	.
16g/	.	.	.
16f/	.	.	.
16e/	.	(16gg\LL	.
16d/	.	16ff\	.
[>16c#X/JJ	.	16ee\JJ	.
=50	=50	=50	=50
16c#/LL]	8.F\	8.bb-X\L	.
16e/	.	.	.
16d/JJ)	.	.	.
16r	8.ryy	16aa\L	.
8r	.	16ff\	.
.	.	16dd\JJ)	.
!!LO:LB:g=original
*clefF4	*	*	*
=51	=51	=51	=51
(<16D/LL	4.D\	8.r	.
16d/	.	.	.
16c/	.	.	.
16B/	.	(16dd\LL	.
16A/	.	16cc\	.
[>16G#X/JJ	.	16b\JJ	.
=52	=52	=52	=52
16G#/LL]	8.C\	8.ff\L	.
16B/	.	.	.
16A/JJ)	.	.	.
16r	8.ryy	16ee\L	.
8r	.	16cc\	.
.	.	16a\JJ)	.
*v	*v	*	*
=53	=53	=53
*	*^	*
!	!LO:TX:b:t=di_mi_nu___en___do:ext=ud:problem:dynamics with extention lines	!	!LO:HP:t=di_mi_nu___en___do:ext=ud
16r	[>16e/LL	16ryy	>
(16C/LL	16e/]	8A\	.
16BB/	(16d#X/	.	.
16BB-X/	16G/ 16c#X 16e	8.ryy	.
16AA/	16A/ 16dn 16f	.	.
16GG/JJ	16B-X/JJ 16e 16g	.	.
=54	=54	=54	=54
16FF/LL	8A/L 8a	16e\LL	.
16F/	.	16d\JJ	.
16E/	16B/L) 16e 16g#X	4ryy	.
16D#X/	(16c~/ 16f#X 16a	.	.
16Dn/	16fn~/ 16g# 16b	.	.
16C/JJ)	16f~/JJ 16g# 16cc	.	.
*	*v	*v	*
=55	=55	=55
16BB/LL	16f\LL) 16g#X 16dd	.
(16BBB-X/ 16BB-X	(>[<16gn\ [>16cc#X 16ee	.
16AAA/) 16AA	16g^^\]) 16cc#] 16gg	]
(16AAA-X/ 16AA-X	(16f~>\ 16ccn 16ff	.
16GGG/) 16GG	16g~>\ [16b 16ee	.
[16GG/JJ [16G	16f~>\JJ) 16b] 16dd	.
=	=	=
16GG/KL] 16G]	(8f\L 8b 8gg	.
8EE/	.	.
.	16e\Jk) 16cc	.
16GG/L	16r	.
16C/JJ	16r	.
!!LO:LB:g=original
=56!|:	=56!|:	=56!|:
*>C	*>C	*
*MM108	*MM108	*
!	!LO:TX:a:i:t=leggiero sempre e più vivo	!
16r	16g/	.
=57	=57	=57
(16C'\LL	(<32ee/LLL	pp
.	32e/	.
16G\	32f/	.
.	32f#X/JJJ	.
16BB'\	32g/LLL	.
.	32f#/	.
16G'\	32a/	.
.	32g/JJJ	.
16BB-X'\	32d/LLL	.
.	32c#X/	.
16G'\JJ	32e/	.
.	32d/JJJ	.
=58	=58	=58
16AA'\LL	32fn/LLL	.
.	32e/	.
16F'\JJ	32g/	.
.	32f/JJJ	.
16A'\LL	32cc\LLL	.
.	32b\	.
16c'\	32dd\	.
.	32cc\JJJ	.
16G'\	32e/LLL	.
.	32d#X/	.
16B-X'\JJ)	32f/	.
.	32e/JJJ)	.
=59	=59	=59
(16F'\LL	(32dn/LLL	.
.	32c#X/	.
16A'\	32e/	.
.	32d/JJJ	.
16B'\	32a/LLL	.
.	32g#X/	.
16F'\	32b/	.
.	32a/JJJ	.
16E'\	32gn/LLL	.
.	32f#X/	.
16c'\JJ	32a/	.
.	32g/JJJ	.
=60	=60	=60
16D'\LL	32fn/LLL	.
.	32e/	.
16G'\	32g/	.
.	32f/JJJ	.
16C'\	32e/LLL	.
.	32d#X/	.
16G'\	32f/	.
.	32e/JJJ	.
16BB'\	32dn/LLL	.
.	32c#X/	.
16G#X'\JJ)	32e/	.
.	32d/JJJ	.
!!LO:LB:g=original
=61	=61	=61
8AA/	32cn/LLL)	.
.	(32b/	.
.	32dd/	.
.	32cc/JJJ)	.
*clefG2	*	*
32r	4ee-X^\ 4gg 4eee-X	.
(32g#X/LLL	.	.
32b/	.	.
32a/JJJ	.	.
32cc/LLL	.	.
32b/	.	.
32a/	.	.
32gn/JJJ	.	.
=62	=62	=62
8f#X/)	32r	.
.	(32b\LLL	.
.	32dd\	.
.	32cc\JJJ)	.
32r	4b-X^\ 4dd 4bb-X	.
(32f#/LLL	.	.
32a/	.	.
32g/JJJ	.	.
32g/LLL	.	.
32fn/	.	.
32e/	.	.
32d/JJJ	.	.
=63	=63	=63
*	*^	*
8c#X/)	32r	8ryy	.
.	(32g#X\LLL	.	.
.	32bn\	.	.
.	32a\JJJ)	.	.
!	!LO:TX:b:i:t=riten.	!	!
32r	[8gg^/L	[<8gn\L [>8a	.
!LO:TX:a:i:t=espress.	!	!	!
(32c#/LLL	.	.	.
32e/	.	.	.
32d/JJJ	.	.	.
32d/LLL	32gg/LL]	32g\KL] 32a]	<
32cn/	32a/	16.d\JJ 16.f#X	.
32B/	32b/	.	.
32A/JJJ)	32cc/JJJ	.	[[
*	*v	*v	*
*clefF4	*	*
=	=	=
!	!LO:TX:a:t=a tempo	!
32r	((4c/ 4f#X 4dd	>
(32GG\LLL	.	.
32A\	.	.
32G#X\JJJ	.	.
32B\LLL	.	.
32A\	.	.
32G#\	.	.
32A\JJJ	.	.
16GGn/)	16B/)) 16g	]]
!!LO:LB:g=original
=64:|!|:	=64:|!|:	=64:|!|:
*>D	*>D	*
(16G\	16r	.
=65	=65	=65
8GG'/)	32r	.
.	(32g\LLL	.
.	32gg\ 32bb-X	.
.	32ff\JJJ 32aa	.
*clefG2	*	*
32r	16ee'\) 16gg	.
(32G/LLL	.	.
32c#X/ 32e	16r	.
32d/JJJ 32f	.	.
16e'/) 16g	32r	.
!	!LO:TX:b:t=un poco cre_ scen_ _ _do:ext1=s:ext2=ud:problem:dynamics with extention lines	!LO:HP:t=un poco cre_ scen_ _ _do:ext1=s:ext2=ud
.	(>32ee\LLL 32gg	<
16r	32dd\ 32ff	.
.	32cc#X\JJJ 32ee	.
=66	=66	=66
*^	*^	*
16r	16ryy	4.aa/)	16aa\LL	.
(16F/LL	[16F\	.	(>32cc#X\L	.
.	.	.	32dd\JJJ)	.
16f/	4F\]	.	(>32dd\LLL	.
.	.	.	32ee\)	.
16c#X/	.	.	(>32ee\	.
.	.	.	32ff\JJJ)	.
16d/	.	.	(>32ff\LLL	.
.	.	.	32ee\)	.
16f/JJ	.	.	(>32ee\	.
.	.	.	32dd\JJJ)	.
*v	*v	*	*	*
*	*v	*v	*
*clefF4	*	*
=67	=67	=67
8D'\)	32r	.
.	(32f\LLL	.
.	32dd\ 32ff	.
.	32cc\JJJ 32ee	.
32r	16b'\) 16dd	[
(32D\LLL	.	.
32G#X\ 32B	16r	.
32A\JJJ 32c	.	.
16B'\) 16d	32r	.
.	(32b\LLL 32dd	.
16r	32a\ 32cc	.
.	32g#X\JJJ 32b	.
=68	=68	=68
*^	*^	*
16r	16ryy	4.ee/)	16ee\LL	.
(16C/LL	[16C\	.	(>32g#X\L	.
.	.	.	32a\JJJ)	.
16c/	4C\]	.	(>32a\LLL	.
.	.	.	32b\)	.
16G#X/	.	.	(>32b\	.
.	.	.	32cc\JJJ)	.
16A/	.	.	(>32cc\LLL	.
.	.	.	32b\)	.
16c/JJ	.	.	(>32b\	.
.	.	.	32a\JJJ)	.
*	*	*v	*v	*
!!LO:LB:g=original
=69	=69	=69	=69
8BB'/)	8ryy	32r	.
.	.	(32gg#X\LLL	pp
.	.	32bb\	.
.	.	32aa\JJJ	.
*clefG2	*	*	*
32r	32ryy	4ggn^\) 4ddd 4gggn	.
(32b-X/LLL	[16.b-\KL	.	.
32dd#X/	.	.	.
32ff/JJJ	.	.	.
32ee/LLL	8b-\J]	.	.
32dd#/	.	.	.
32ee/	.	.	.
32ddn/JJJ	.	.	.
=70	=70	=70	=70
8a'\) 8cc#X	8ryy	32r	.
.	.	(32ff#X\LLL	.
.	.	32aa\	.
.	.	32gg\JJJ	.
32r	32ryy	4ffn^\) 4cccn 4fffn	.
(32a-X/LLL	[16.a-\KL	.	.
32cc#/	.	.	.
32ee/JJJ	.	.	.
32dd/LLL	8a-\J]	.	.
32cc#/	.	.	.
32dd/	.	.	.
32ccn/JJJ	.	.	.
*v	*v	*	*
=71	=71	=71
*	*^	*
8g'/) 8b	32r	4ryy	.
.	(32ee\LLL	.	<
.	32gg\	.	.
.	32ff\JJJ)	.	.
!	!LO:TX:a:i:t=riten.	!	!
32r	(16cc#X'\LL 16ee 16bb-X	.	.
!LO:TX:a:i:t=espress.	!	!	!
(16g/LL	.	.	.
.	16ccn'\JJ 16ee-X 16aa	.	.
[32f#X/JJk)	.	.	.
32f#/LLL]	32aa-X'/LLL)	32b\KLL 32dd	.
(32fn/	(32dd/	16.a-X\JJ 16.b	.
32e/	32een/	.	[
32d/JJJ)	32ff/JJJ)	.	.
*	*v	*v	*
=	=	=
*clefF4	*	*
!	!LO:TX:a:t=a tempo	!
32r	(4f\ 4b 4gg	>
(32C\LLL	.	.
32d\	.	.
32c#X\JJJ	.	.
32e\LLL	.	.
32d\	.	.
32c#\	.	.
32d\JJJ	.	.
16Cn/)	16e/) 16cc	]]
!!LO:PB:g=original
=72:|!	=72:|!	=72:|!
*>E	*>E	*
*MM100	*MM100	*
!	!LO:TX:a:t=Quasi alla Polacca e risoluto.	!
(16G\	[16g/	.
=73!|:	=73!|:	=73!|:
[<8CC/L) [<8C	32g/LLL]	p
.	64r	.
.	([64g/K	.
.	32e/) 32g] 32ee	.
.	64r	.
.	64d#X'/JJJk 64g 64dd#X	.
32CC/Jkk] 32C]	32e/KLL 32g 32ee	.
32r	32r	.
(16CC/LL 16C	[16G/ 16e 16g	sf
32BBB/JJk) 32BB	32G/K] 32d# 32g	.
32r	32r	.
(16BBB-X/KL 16BB-X	[<16G^/JJ [>16c#X [>16g	.
=74	=74	=74
[<8AAA/) [<8AA	32G/LLL] 32c#] 32g]	.
.	64r	.
.	[64f/K	.
.	32c#X/ 32f] 32cc	.
.	64r	.
.	64B'/JJJk 64f 64b	.
32AAA/Jkk] 32AA]	32c#'/KLL 32f 32cc	.
32r	32r	.
(16AAA-X/LL 16AA-X	[16F/ 16c# [16f	sf
32GGG/K) 32GG	32F/K] 32B 32f]	.
32r	32r	.
16GGG-X/JJ 16GG-X	[<16E/JJ [>16B-X [>16e	.
=75	=75	=75
16.FFF/LL 16.FF	32E/LLL] 32B-] 32e]	.
.	64r	.
.	64d/JK	.
.	[16A/JJ [16a	<
32FFF/JJk 32FF	.	.
16EEE'/LL 16EE	32A/LLL] 32a]	.
.	32G/ 32g	.
[16EE^/JJ [16E	32c/ 32cc	.
.	32e/JJ 32ee	.
32EE/LLL] 32E]	[8g/J [8gg	[[
32GG/ 32G	.	.
32EE/ 32E	.	.
32CC/JJJ 32C	.	.
!!LO:LB:g=original
=76	=76	=76
*	*^	*
16BBB/LL 16BB	16g/LL] 16gg]	16ryy	.
32BB/L 32G	16g/JJ [16dd	32f\LLL	.
!	!	!	!LO:HP:t=crescendo
32BB/JJJ 32G	.	32f\JJJ 32g	<
16BB\LL 16G	32dd/LLL]	32f\ 32g	.
.	32f/	16.f\	.
16BB\ 16G	32g/	.	.
.	32dd#X/JJJ	.	.
16BB\ 16G	16.ee/LL	32ee\KLL	.
.	.	[>16e\	.
16BB\JJ 16G#X	.	.	.
.	32ddn/JJk	32e\JJk_<	.
*	*v	*v	*
=77	=77	=77
8AA\ 8A	32e\LLL] 32cc	.
.	64r	.
.	(>[>64ee\K	ff
.	32cc\) 32ee] 32ccc	.
.	64r	.
.	64b'\JJK 64ee 64bb	.
*clefG2	*	*
32.r	8cc\J 8ee 8ccc	.
(64G#X/KLLL 64g#X	.	.
32B/) 32b	.	.
64r	.	.
(64A/JJJk 64a	.	.
!LO:TX:b:i:t=molto	!	!LO:DY:b=2
!LO:TX:t=P:problem:cross-measure beam	!LO:TX:t=P:problem:cross-measure beam	!
(16E-X/LL) 16e-X	(16g\LL [<16cc 16gg	sf >]
=78	=78	=78
16D/JJ) 16d	32f#X\JJk) 32cc] 32ff#X	.
.	64r	.
.	(64ff#\KLLL	.
16ryy	32b\) 32bb	.
.	64r	.
.	64a'\JJJk 64aa	.
*clefF4	*	*
32.r	8g\J 8gg	.
(64D#X\KLLL 64d#X	.	.
32F#X\) 32f#X	.	.
64r	.	.
(64E\JJJk 64e	.	.
!LO:TX:t=P:problem:cross-measure beam	!	!LO:DY:b=2
(8BB-X^\L) 8B-X	16r	sf >]
!	!LO:TX:t=P:problem:cross-measure beam	!
.	((16d/LL 16g 16dd	.
!!LO:LB:g=original
=79	=79	=79
*	*^	*
32AA\JJ) 32A	32c#X/JJk)) 32g 32cc#X	8.ryy	.
32r	32r	.	.
!LO:TX:t=P:problem:mixed beam	!	!	!
16A\LL 16e	8g\ 8cc# 8gg	.	sf
16DD/JJ	.	.	.
[<16D\LL [>16A [>16d	(32ff#X/LLL	[16f#X\ [16ccn	>
.	32ee/JJJ	.	.
32D\JJk] 32A] 32d]	32f#/LLL]) 32cc] 32dd	8ryy	.
32r	32c#'/ 32cc	.	.
16r	32B'/ 32b	.	.
.	32A'/JJJ 32a	.	]
*	*v	*v	*
=80	=80	=80
16r	16dd/LL	.
32GG/LLL 32D 32F#X	32c/L 32d 32a	p
32GG/J 32D 32F#	32c/JJJ 32d 32b	.
16GG/ 16D 16G	16B/LL 16d 16g	.
!	!LO:TX:b:i:t=leggiero	!
32G/L	32g/L	.
32G/J	32g/J	.
16G/	16g/	.
16G/JJ	16g/JJ	.
=81:|!|:	=81:|!|:	=81:|!|:
*>F	*>F	*
16GG'/	32.r	p
!	!LO:TX:b:i:t=dolce	!
.	(64b-X\KLLL 64dd	.
16r	32a\) 32cc#X	.
.	64r	.
.	([64b-\JJJk 64dd	.
*clefG2	*	*
16r	8b-\L] 8ee	.
(16g/LL	.	.
16c#X/	8a\J) 8ff	.
16d/JJ)	.	.
=82	=82	=82
*	*^	*
(32e/LLL	16g:\LL 16cc: 16gg:	8ryy	.
32d/	.	.	.
32c/	16g#X:\JJ 16cc: 16gg#X:	.	.
32B-X/JJJ	.	.	.
*clefF4	*	*	*
32A\LLL	16.aa:/LL	16.a:\ 16.cc:	.
32C\	.	.	.
32FF\JJJ)	.	.	.
32r	(32ee/JJk	32ryy	.
8r	32ggn/LLL	8ryy	.
.	32ff/	.	.
.	32cc/	.	.
.	32a/JJJ	.	.
*	*v	*v	*
!!LO:LB:g=original
=83	=83	=83
8r	32f/LLL)	.
.	64r	.
.	(64f/K 64a	.
.	32e/) 32g#X	.
.	64r	.
.	([64f/JJJk 64a	.
*clefG2	*	*
16r	8f/L] 8b	.
(16d/LL	.	.
16G#X/	8e/J) 8cc	.
16A/JJ)	.	.
*clefF4	*	*
=84	=84	=84
*	*^	*
(32B\LLL	16d:/LL 16gn: 16dd:	8ryy	.
32A\	.	.	.
32G\	16d#X:/JJ 16g: 16dd#X:	.	.
32F\JJJ	.	.	.
32E/LLL	16.ee:/LL	16.e:\ 16.g:	.
32GG/	.	.	.
32CC/JJJ)	.	.	.
32r	(32b/JJk	32ryy	.
8r	32ddn/LLL	8ryy	.
.	32cc/	.	.
.	32g/	.	.
.	32e/JJJ	.	.
*	*v	*v	*
=85	=85	=85
*^	*	*
8r	8.ryy	32c/LLL)	.
.	.	64r	.
.	.	(64e/K 64ee	ff
.	.	32d#X/) 32dd#X	.
.	.	64r	.
.	.	64e/JJJk 64ee	.
8ryy	.	(>[<8.b^\L [<8.dd#X 8.gg [>8.bb	.
!LO:TX:t=P:problem:mixed beam	!	!	!
.	16AAA'</KL 16AA	.	.
(16B^/LL 16d#X 16g	8A\J	.	.
16f#X/JJ	.	16b\Jk_) 16dd#] 16ff#X 16bb_	.
!!LO:LB:g=original
=86	=86	=86	=86
16G\) 16B 16e	8ryy	32b\LLL] 32ee 32bb]	.
.	.	64r	.
.	.	(64e\K 64ee	.
16r	.	32d#X\) 32dd#X	.
.	.	64r	.
.	.	64e\JJJk 64ee	.
!	!	!	!LO:DY:a
16r	16ryy	([8.a\L 8.cc#X 8.ffn [8.aa	>
!LO:TX:t=P:problem:mixed beam	!	!	!
16ryy	16GGG'/KL 16GG	.	.
(N[<16A/LL 16c#X 16fn	8G\J	.	.
16e/JJ	.	16a\Jk_) 16cc# 16ee 16aa_	]]
=87	=87	=87	=87
32d/LLL)	32F\ 32AN]	32a\LLL] 32dd 32aa]	.
32r	16.ryy	32aa'\ 32aaa	.
32a'/	.	32ff'\ 32fff	.
32g'/JJJ	.	32ee'\JJJ 32eee	.
!	!	!	!LO:HP:a
32f'/LLL	4ryy	32dd'\LLL 32ddd	>
32e'/	.	32ccn'\ 32cccn	.
32d'/	.	32b'\ 32bb	.
32c'/JJJ	.	32a'\JJJ 32aa	.
32B'/LLL	.	32g'\LLL 32gg	]
32A'/	.	32f'\ 32ff	.
32G'/	.	32e'\ 32ee	.
32F'/JJJ	.	32d'\JJJ 32dd	.
*v	*v	*	*
=88	=88	=88
*>F1	*>F1	*
16r	16gg\LL	.
32C\LLL 32G 32B	32f\L 32g 32dd	p
32C\J 32G 32B	32f\JJJ 32g 32ee	.
!	!LO:TX:b:i:t=leggiero	!
16C\ 16G 16c	16e/LL 16g 16cc	.
32G\L	32g/L	.
32G\J	32g/J	.
16G\	16g/	.
16G\JJ	16g/JJ	.
=89:|!	=89:|!	=89:|!
*>F2	*>F2	*
16r	16gg\LL	.
!	!LO:TX:b:i:t=legg.	!
32C\LLL 32G 32B	32f\L 32g 32dd	.
32C\J 32G 32B	32f\J 32g 32ee	.
16C\JJ 16G 16c	16e\JJ 16g 16cc	.
16r	16r	.
*	*clefF4	*
[>8GG/	[8G\	pp
!!LO:LB:g=original
=90||	=90||	=90||
*>G	*>G	*
*k[b-e-a-]	*k[b-e-a-]	*
*MM69	*MM69	*
*^	*^	*
!	!	!LO:TX:b:i:t=legato e	!	!
!	!	!LO:TX:a:t=molto sostenuto.	!	!
4.GG/]	8CC\L	4.G/]	8E-\L	.
.	8BBBn\	.	8D\	.
.	[8CC\J	.	8E-\J	.
*v	*v	*	*	*
=91	=91	=91	=91
8CC/L] 8AA-	[<4.C/ [>4.c	8F\L	pp
8GG/	.	8E-\	.
8FF/J	.	8A-\J	.
=92	=92	=92	=92
8EE-/L	8C\] 8G 8c]	8ryy	.
8DD/	4F/ 4d	(>8c\L	<
8GGG/J	.	8Bn\J	.
=93	=93	=93	=93
8.CC/L	8E-/ 8e-	16d\LL	.
.	.	16c\JJ)	[
*	*clefG2	*	*
!	!	!	!LO:DY:a
.	8.f/L	[8.A-\L 8.e-	sf
16CC-X/K	.	.	.
8BBB-/J	.	.	.
.	16f#X/Jk	16A-\Jk] 16d	.
*	*v	*v	*
=94	=94	=94
8EE-/L	8G/L [>8B- 8g	.
!	!	!LO:DY:a
8DD/	8F#X/ 8B-] 8f#X	<
[8EE-/J	8G/J 8B- 8g	.
=95	=95	=95
8EE-\L]	8GG</L [<8G<	.
8DD\	8AAn</ 8G<] 8An<	.
8DD-X\J	8BBn</J 8F< 8Bn<	.
=96	=96	=96
*	*^	*
16CC\LL	(>[<8C</L 8c<	16En<\LL	.
16BBB-\	.	16G<\JJ	.
16AAAn\	8C</_<) 8F< [8d<	4ryy	.
16BBB-\	.	.	.
16CC\	8C</J] 8F#X< 8d<]	.	.
16DD\JJ	.	.	[
*	*v	*v	*
=97	=97	=97
8GGG\L	8C</L [>8G< [>8d<	>
16GG\Jk	16BBn</Jk 16G<] 16d<]	.
16r	16r<	]
*	*clefF4	*
[<8GG/	[>8G/	.
!!LO:PB:g=original
=98	=98	=98
*	*^	*
32GG/KLL]	4G/]	16E-\LL	.
16CC/	.	.	.
.	.	16D\	.
16GG/	.	.	.
.	.	16E-\	.
16C/	.	.	.
.	.	16D\	.
16GG/	.	.	.
.	8ryy	16E-\	.
16CC/	.	.	.
.	.	16En\JJ	.
[32BBB-/JJk	.	.	.
=99	=99	=99	=99
32BBB-/KLL]	[<4.C/ [>4.c	16F\LL	.
16AAA-/	.	.	.
.	.	16En\	.
16AA-/	.	.	.
.	.	16F\	.
16AA-/	.	.	.
.	.	16E-X\	.
16GG/	.	.	.
.	.	16D\	<
16FF#X/	.	.	.
.	.	16A-\JJ	.
[32FFn/JJk	.	.	.
=100	=100	=100	=100
32FF/KLL]	16C/KL] 16c]	8G\L	.
16FF/	.	.	.
.	8C/ 8c	.	.
16EEn/	.	.	.
.	.	8F#X\J	.
16EE-X/	.	.	.
.	8C/ 8c	.	.
16AA-/	.	.	.
.	.	16c\LL	.
16GG/	.	.	.
.	16Fn/Jk 16d	16Bn\JJ	.
[32GGG/JJk	.	.	.
=101	=101	=101	=101
*	*	*^	*
32GGG/KLL]	8e-/	4E-\ 4e-	16d\LL	[
16CC/	.	.	.	.
.	.	.	16c\JJ	.
16C/	.	.	.	.
*	*clefG2	*	*	*
!	!	!	!	!LO:DY:a
.	8e-/L [>8f	.	16A-\LL	sf
16CC/	.	.	.	.
.	.	.	16An\	.
16CC-X/	.	.	.	.
.	16f/L]	8d\	16B-\	.
16BBB-/	.	.	.	.
.	16f#X/JJ	.	16A-X\JJ	.
[32BB-/JJk	.	.	.	.
*	*	*v	*v	*
=102	=102	=102	=102
!	!	!	!LO:HP:a
32BB-/KLL]	16G/LL [>16B- 16g	8ryy	<
16BB-/	.	.	.
.	16F#X/JJ 16B-_> 16f#X	.	.
16EE-/	.	.	[
!	!	!	!LO:HP:a
.	[<4G/ [>4g	16B-\LL]	>
16BB-/	.	.	.
.	.	16d-X\	.
16E-/	.	.	.
.	.	16c\	.
16D/	.	.	.
.	.	16c-X\JJ	.
[32EE-/JJk	.	.	.
*	*v	*v	*
=103	=103	=103
32EE-/KLL]	16G/] 16B- 16g]	] <
16DD/	.	.
*	*clefF4	*
.	16GG\LL [<16G	.
16EE-/	.	.
.	16AA-\ 16G] 16A-	.
16FF/	.	.
.	16AAn\ [<16G 16An	.
16EE-/	.	.
.	16BB-\ 16G] 16B-	.
16DD/	.	.
.	16BBn\JJ 16F 16Bn	[[
[32DD-X/JJk	.	.
!!LO:LB:g=original
=104	=104	=104
*	*^	*
*	*	*^	*
32DD-/KLL]	8c/	(<16En\LL	4.C\	<
16CC/	.	.	.	.
.	.	16G\	.	.
16BBB-/	.	.	.	.
.	4d/	16F\	.	.
16AAAn/	.	.	.	.
.	.	16F#X\	.	.
16AAA-X/	.	.	.	.
.	.	16G\	.	.
16GGG/	.	.	.	.
.	.	16An\JJ)	.	.
[32FFF#X/JJk	.	.	.	[
*	*	*v	*v	*
=105	=105	=105	=105
*^	*	*	*
!LO:TX:a:t=m.s.	!	!LO:TX:t=P:problem:klamra	!	!
32FFF#/KLL]	16C>\LL	[4d/	8.G\L	.
16GGG/	.	.	.	.
.	16AAn>\J	.	.	>
16BBB-/	.	.	.	.
.	N[<8BBn>\J	.	.	.
16GG/	.	.	.	.
.	.	.	16A-X\Jk	.
[16GG/	.	.	.	.
.	16ryy	16BB>\N] 16G\ 16d]	8ryy	.
32GG/K]	.	.	.	.
[16GG/JJ	16ryy	16r	.	]
*v	*v	*	*	*
*	*v	*v	*
=106	=106	=106
4GG/] 4G	8r	.
.	8BB-\L 8B-	<
8FF/ 8F	8D-X\J 8d-X	[[
*	*clefG2	*
=107	=107	=107
*	*^	*
8EE-/L 8E-	[<8d-X^:/L 8b-:	8.G:\L	.
8.AA-/	(8d-/] [8e-	.	>
.	.	16B-\L	.
.	16c/Jk) 16e-]	16A-\JJ	.
16GG/Jk	16r	16ryy	]
*	*v	*v	*
*	*clefF4	*
=108	=108	=108
[8FF/L	8r	.
8FF/] 8F	(8AA-\L 8A-	<
8EE-/J 8E-	8C-X\J) 8c-X	[[
*	*clefG2	*
=109	=109	=109
*	*^	*
8DD-X/L 8D-X	[<8c-X:^/L 8a-:	8.F:\L	.
8.GG-X/	8c-/] [8d-X	.	.
.	.	16A-\L	>
.	16B-/Jk 16d-]	16G-X\JJ	.
16FF/Jk	16r	16ryy	]
!!LO:LB:g=original
*	*clefF4	*	*
=110	=110	=110	=110
4EEn/	8r	8ryy	.
.	(<8B-/L	[4C\ 4c	sf
16FF/LL	16A-/L)	.	.
16BB-/JJ	16G/JJ	.	.
*	*v	*v	*
=111	=111	=111
8AA-/L	8C\L] 8F 8c	<
8GG/	8D\ 8c 8d	.
8GG-X/J	8En\J 8B- 8en	.
*	*clefG2	*
=112	=112	=112
*	*^	*
16FF/LL	8F/L 8f	16An\LL	.
16EE-/	.	16c\JJ	.
16DD/	[8F/ 8B- [8g	4ryy	.
16EE-/	.	.	.
16FF/	8F/J] 8Bn 8g]	.	.
16GGn/JJ	.	.	[
*	*v	*v	*
=113	=113	=113
(8CC/L	8F/L [>8c [>8g	>
16C/Jk)	16En/Jk 16c] 16g]	.
16r	16r	]
!LO:TX:t=P:problem:cross-measure beam	!	!
8GG/L	8r	.
*	*clefF4	*
=114	=114	=114
16GGG/Jk	16r	.
32r	16BB-\LL 16B-	<
16AA-/LL	.	.
.	16AAn\ 16An	.
16GG/	.	.
.	16BB-\ 16B-	.
16FF/	.	.
.	16C\ 16c	.
16FF-X/	.	.
.	16D-X\JJ 16d-X	[[
[32EE-/JJk	.	.
*	*clefG2	*
=115	=115	=115
*	*^	*
32EE-/KLL]	4G^:/ 4b-:	16d-X:\LL	.
16EE-/	.	.	.
!	!	!	!LO:HP:a
.	.	16f-X\	>
16AAA-X/	.	.	.
.	.	16e-\	.
16EE-/	.	.	.
.	.	[>16d-\	.
16E-/	.	.	.
.	8A-/ 8e-	16d-\]	.
16AA-/	.	.	.
.	.	16c\JJ	]
32GG/JJk	.	.	.
*	*v	*v	*
!!LO:LB:g=original
*	*clefF4	*
=116	=116	=116
16FF/	16r	<
32r	16AA-\LL 16A-	.
16GG-X/LL	.	.
.	16GG\ 16G	.
16FF/	.	.
.	16AA-\ 16A-	.
16EE-/	.	.
.	16BB-\ 16B-	.
16DD/	.	.
.	16C-X\JJ 16c-X	[[
[32DD-X/JJk	.	.
*	*clefG2	*
=117	=117	=117
*	*^	*^
!	!	!	!LO:HP:a	!
32DD-/KLL]	4F:/ 4a-:	16c-X:\LL	>	.
16DD-X/	.	.	.	.
.	.	16e--\	.	.
!	!	!	!	!LO:HP:b=2
16GGG-X/	.	.	.	>
.	.	16d-X\	.	.
16DD-/	.	.	.	.
.	.	[16c-\	.	.
16D-X/	.	.	.	.
.	8G/ 8d-	16c-\]	.	.
16GG-X/	.	.	.	.
.	.	16B-\JJ	]	.
32FF/JJk	.	.	.	]
*	*	*	*v	*v
*	*clefF4	*	*
=118	=118	=118	=118
16EEn/	16r	8ryy	]
32r	[<16C/KL [>16c	.	.
32CC/KLL	.	.	.
16EE/	8C/_> 8c_>	16B-\LL	<
16FF/	.	16A-\	.
16.GG/	8C/J_< 8c_>	16G\	.
.	.	16F\JJ	.
[32AA-/JJk	.	.	.
*	*v	*v	*
=119	=119	=119
32AA-/KLL]	16C\] 16En 16c]	.
16GG/	.	.
.	16C\LL [<16c	.
16AA-/	.	.
.	16D-X\ 16c] 16d-X	.
16BB-/	.	.
.	16Dn\ [<16c 16dn	.
16AA-/	.	.
.	16E\ 16c] 16e-	.
16GG/	.	.
.	16En\JJ 16B- 16en	.
[32GG-X/JJk	.	.
*	*clefG2	*
=120	=120	=120
*	*^	*
32GG-/KLL]	8Fn/ 8f	(16An\LL	.
16FF/	.	.	.
.	.	16c\JJ	.
16EE-/	.	.	.
.	4F/ 4g	16B-\LL)	.
16DD/	.	.	.
.	.	16Bn\	.
16DD-X/	.	.	.
.	.	16c\	.
16CC/	.	.	.
.	.	16dn\JJ	.
N[<32BBBn/JJk	.	.	.
!!LO:LB:g=original
=121	=121	=121	=121
*^	*	*	*
!	!	!LO:TX:t=P:problem:klamra	!	!LO:HP:a
16F/LL	32BBB\KLLN]	[4g/	8.c\L	[ >
.	16CC\	.	.	.
16Dn/J	.	.	.	.
.	16GG\	.	.	.
[8En/J	.	.	.	.
.	16C\	.	.	.
.	.	.	16d-X\Jk	.
.	[16C\	.	.	.
8E/]	.	16E-/ 16c 16g]	8ryy	]
.	32C\JJk]	.	.	.
.	16G\	16r	.	.
*v	*v	*	*	*
*	*v	*v	*
=122||	=122||	=122||
*>H	*>H	*
*k[]	*k[]	*
*M9/16	*M9/16	*
*MM50	*MM50	*
!	!LO:TX:a:t=Cantabile.	!
32C\LLL	16r	p
32e\	.	.
!	!LO:TX:b:i:t=molto legato	!
32G\	(>[<8ee\L	.
32E\	.	.
32e\	.	.
32G\JJJ	.	.
32C\LLL	16ee\L]	.
32e\	.	.
32B-X\	16dd\	.
32G\	.	.
32e\	[>16cc\JJ	.
32B-\JJJ	.	.
32C\LLL	16cc\LL]	.
32f\	.	.
32A\	16gg\	.
32F\	.	.
32f\	16ff\JJ)	.
32A\JJJ	.	.
=123	=123	=123
32C\LLL	16r	.
32e\	.	.
32G\	(>[>8ee\L	.
32E\	.	.
32e\	.	.
32G\JJJ	.	.
32BB-X\LLL	16ee\L]	.
32c\	.	.
32G\	16dd\	.
32E\	.	.
32c\	[>16cc\JJ	.
32G\JJJ	.	.
32AA\LLL	16cc\LL]	.
32d\	.	.
32c\	16bb\	.
32F#X\	.	.
32d\	16aa\JJ)	.
32c\JJJ	.	.
!!LO:LB:g=original
=124	=124	=124
!	!LO:N:vis=4.	!
32AA-X\LLL	[8.dd\	<
32d\	.	.
32c\	.	.
32F#X\	.	.
32d\	.	.
32c\JJJ	.	.
32GG\LLL	16dd\LL]	.
32d\	.	.
32c\	(16dd\	.
32Fn\	.	.
32d\	16ee\JJ	.
32c\JJJ	.	.
.	8qgg/	.
32F\LLL	16ff\LL	.
32d\	.	.
32B\	16ee\	.
32F\	.	.
32d\	16dd\JJ)	.
32B\JJJ	.	.
=125	=125	=125
*	*^	*
32C\LLL	8.ee/L	16dd\LL	[
32e\	.	.	.
32G\	.	16g\	.
32C\	.	.	.
32e\	.	[<16cc\JJ	.
32G\JJJ	.	.	.
32GG#X\LLL	8.dd/	16cc\LL]	>
32d\	.	.	.
32F\	.	16f\	.
32GG#\	.	.	.
32d\	.	[<16b\JJ	.
32F\JJJ	.	.	.
32AA\LLL	8.cc/J	16b\LL]	.
32c\	.	.	.
32E\	.	16e\	.
32AA\	.	.	.
32c\	.	16a\JJ	]
32E\JJJ	.	.	.
*	*v	*v	*
=126	=126	=126
!LO:TX:t=P:problem:mixed beam	!	!
32AAA/LLL	16r	.
32e-X\	.	.
!	!LO:TX:a:i:t=marc.	!LO:HP:t=crescendo un poco
32A\	([8ee-X^\L [8eee-X	<
32G\	.	.
32e-\	.	.
32A\JJJ	.	.
32G\LLL	16ee-\L] 16eee-]	.
32e-\	.	.
32A\	16dd\ 16ddd	.
32G\	.	.
32e-\	16cc\JJ 16ccc	.
32A\JJJ	.	.
.	8qddd/	.
32D\LLL	16cc\LL 16ccc	.
32d\	.	.
32c\	16b\ 16bb	.
32F#X\	.	.
32d\	16a\JJ) 16aa	.
32c\JJJ	.	.
!!LO:LB:g=original
=127	=127	=127
32EE\LLL	16r	.
32B-X\	.	.
!	!LO:TX:a:i:t=marc.	!
32E\	([8b-X^\L [8bb-X	.
32D\	.	.
32B-\	.	.
32E\JJJ	.	.
32D\LLL	16b-\L] 16bb-]	.
32B-\	.	.
32E\	16a\ 16aa	.
32D\	.	.
32B-\	16g\JJ 16gg	.
32E\JJJ	.	.
.	8qaa/	.
32AA\LLL	16g\LL 16gg	.
32A\	.	.
32G\	16f#X\ 16ff#X	.
32C#X\	.	.
32A\	16e\JJ) 16ee	.
32G\JJJ	.	.
=128	=128	=128
*	*^	*^
32DD\LLL	8.d/L	(>8.d\	.	.
32A\	.	.	>	.
32G\	.	.	.	.
32D\	.	.	.	.
32A\	.	.	.	.
32G\JJJ	.	.	.	.
!	!	!	!	!LO:HP:a:t=diminuendo
32D\LLL	16d/L	[4.c\)	.	>
32A\	.	.	.	.
32G\	16d/	.	.	.
32D\	.	.	.	.
32A\	16e/JJ	.	.	.
32G\JJJ	.	.	.	.
32D\LLL	16f#X/LL	.	.	.
32A\	.	.	.	.
32F#X\	16g/	.	.	.
32D\	.	.	.	.
32A\	16a/JJ	.	.	.
32F#\JJJ	.	.	]	.
*	*	*	*v	*v
=129	=129	=129	=129
*>H1	*>H1	*>H1	*
32GG\LLL	8.c/L] 8.dd	16a\LL	pp
32A\	.	.	.
32D\	.	16b\	.
32GG\	.	.	.
32A\	.	16f#X\JJ	.
32D\JJJ	.	.	.
32GG\LLL	8B/J 8g	4.ryy	.
32G\	.	.	.
32D\	.	.	.
32GG\	.	.	.
32B\	16r	.	.
32G\JJJ	.	.	.
32D\LLL	8.r	.	.
32d\	.	.	.
32B\	.	.	.
32G\	.	.	.
32f\	.	.	.
32B\JJJ	.	.	.
!!LO:PB:g=original
=130:|!	=130:|!	=130:|!	=130:|!
*>H2	*>H2	*>H2	*
32GG\LLL	8.c/L 8.dd	16a\LL	<
32A\	.	.	.
32D\	.	16b\	.
32GG\	.	.	.
32A\	.	16f#X\JJ	.
32D\JJJ	.	.	.
32GG\LLL	8B/J 8g	4.ryy	.
32G\	.	.	[
32D\	.	.	.
32GG\	.	.	.
32B\	16r	.	>
32G\JJJ	.	.	.
32D\LLL	8.r	.	.
32d\	.	.	.
32B\	.	.	.
32G\	.	.	.
32g\	.	.	]
32B\JJJ	.	.	.
*	*v	*v	*
=131!|:	=131!|:	=131!|:
*>I	*>I	*
32F\LLL	16r	.
32g\	.	.
!	!LO:TX:a:i:t=espressivo molto	!
32d\	[8gg^\L	.
32B\	.	.
32g\	.	.
32d\JJJ	.	.
32E\LLL	16gg\L]	.
32g\	.	.
.	8qaa/	.
32c#X\	(16gg\	.
32B-X\	.	.
32g\	16ff#X\JJ	.
32c#\JJJ	.	.
32D\LLL	16gg\LL	.
32g\	.	.
32d\	16aa\	.
32B-\	.	.
32g\	[16bb-X\JJ	.
32d\JJJ	.	.
=132	=132	=132
*	*^	*
32C#X\LLL	16bb-\LL]	4.ryy	.
32g\	.	.	.
32e\	16aa\	.	.
32B-X\	.	.	.
32g\	16gg\JJ	.	.
32e\JJJ	.	.	.
.	8qaa/	.	.
32A\LLL	16gg\LL	.	.
32g\	.	.	.
32e\	16ff\	.	.
32A\	.	.	.
32g\	[<16ee\JJ	.	.
32e\JJJ	.	.	.
32D\LLL	8.ff/	16ee\LL]	.
32f\	.	.	.
32d\	.	16a\	.
32A\	.	.	.
32f\	.	16dd\JJ)	.
32d\JJJ	.	.	.
*	*v	*v	*
!!LO:LB:g=original
=133	=133	=133
32C\LLL	16r	.
32d\	.	.
32A\	[8dd\L	.
32F\	.	.
32d\	.	.
32A\JJJ	.	.
!	!	!LO:HP:t=crescendo molto
32BB\LLL	16dd\L]	<
32d\	.	.
.	8qee/	.
32G#X\	(16dd\	.
32F\	.	.
32d\	16cc#X\JJ	.
32G#\JJJ	.	.
32AA\LLL	16dd\LL)	.
32d\	.	.
32A\	(16ee\ 16eee	.
32F\	.	.
32d\	[16ff\JJ) [16fff	.
32A\JJJ	.	.
=134	=134	=134
32GG#X\LLL	16ff\LL] 16fff]	.
32d\	.	.
32B\	16ff'\ [16fff	.
32F\	.	.
32d\	16ff'\JJ 16fff]	.
32B\JJJ	.	.
32E\LLL	(8ff\L 8fff	.
32d\	.	.
32B\	.	.
32E\	.	.
32d\	16ee\Jk) 16eee	.
32B\JJJ	.	.
32AA\LLL	8.r	.
32c\	.	.
32A\	.	.
32E\	.	.
32c\	.	.
32A\JJJ	.	.
=135	=135	=135
32BB\LLL	16r	.
32a\	.	.
!	!LO:TX:a:i:t=dolce	!
32d#X\	(16dd#X\LL	<
32B\	.	.
32a\	[16aa\JJ	[
32d#\JJJ	.	.
32B-X\LLL	16aa\LL])	.
32g\	.	.
.	8qaa/	.
32dn\	(16gg\	.
32B-\	.	.
32g\	16ff#X\JJ	.
32d\JJJ	.	.
32B-\LLL	8gg\L	.
32g\	.	.
32d\	.	.
32B-\	.	.
32g\	16ddn\Jk)	.
32d\JJJ	.	.
!!LO:LB:g=original
=136	=136	=136
32C\LLL	16r	pp
32g\	.	.
32c#X\	(16cc#X\LL	<
32A\	.	.
32g\	[16gg\JJ	.
32c#\JJJ	.	.
32A-X\LLL	16gg\LL])	[
32f\	.	.
.	8qgg/	.
32cn\	16ff\	.
32A-\	.	.
32f\	16ee\JJ	.
32c\JJJ	.	.
!	!LO:TX:t=P:problem:triola	!
!	!LO:TUP:a:problem:klamra łukowa	!
32A-\LLL	8ff\L	.
32f\	.	.
32c\	.	.
32A-\	.	.
32f\	16ccn\Jk	.
32c\JJJ	.	.
=137	=137	=137
32G\LLL	16r	.
32b-X\	.	.
!	!	!LO:HP:a
32e\	[8ee^\L	<
32c#X\	.	.
32b-\	.	.
32e\JJJ	.	.
32F\LLL	16ee\L]	.
32a\	.	.
32d\	(16dd\	.
32A\	.	.
32a\	[16aa\JJ	[
32d\JJJ	.	.
!	!	!LO:HP:a
32GG\LLL	16aa\LL])	>
32f\	.	.
32B\	(16b\	.
32G\	.	.
32f\	16dd\JJ	]]
32B\JJJ	.	.
=138	=138	=138
*>C1	*>C1	*
*	*^	*
32C\LLL	(<8.f/L) 8.gg	16dd\LL	pp <
32d\	.	.	.
32G\	.	16ee\	.
32C\	.	.	.
32d\	.	16b\JJ	.
32G\JJJ	.	.	.
32C\LLL	8e/J) 8cc	4.ryy	.
32c\	.	.	.
32G\	.	.	.
32C\	.	.	.
32e\	16r	.	.
32c\JJJ	.	.	.
32G\LLL	8.r	.	.
32g\	.	.	.
32e\	.	.	.
32c\	.	.	.
32g\	.	.	.
32e\JJJ	.	.	[
!!LO:LB:g=original
=139:|!	=139:|!	=139:|!	=139:|!
*>J	*>J	*>J	*
32C\LLL	(<8.f/L 8.gg	16dd\LL	pp
32d\	.	.	.
!	!LO:TX:b:t=sempre	!	!
32G\	.	16ee\	.
32C\	.	.	.
32d\	.	16b\JJ	.
32G\JJJ	.	.	.
32C\LLL	8e/J) 8cc	4.ryy	.
32c\	.	.	.
32G\	.	.	.
32C\	.	.	.
32c\	16r	.	.
32G\JJJ	.	.	.
!	!	!	!LO:HP:a
32C\LLL	(>[<8.e-X/ 8.a	.	<
32c\	.	.	.
32F#X\	.	.	.
32C\	.	.	.
32c\	.	.	.
32F#\JJJ	.	.	.
=140	=140	=140	=140
32C\LLL	4.b-X/)	8.e-\L]	[
32B-X\	.	.	.
32G\	.	.	.
32C\	.	.	.
32B-\	.	.	.
32G\JJJ	.	.	.
32C\LLL	.	8.d\	.
32B-\	.	.	.
32Fn\	.	.	.
32C\	.	.	.
32B-\	.	.	.
32F\JJJ	.	.	.
32C\LLL	(8.g/	[8.d-X\J	<
32B-\	.	.	.
32E\	.	.	.
32C\	.	.	.
32B-\	.	.	.
32E\JJJ	.	.	[
=141	=141	=141	=141
!	!	!	!LO:HP:a
32C\LLL	4.a/)	8.d-\L]	<
32A\	.	.	.
32F\	.	.	.
32C\	.	.	.
32A\	.	.	.
32F\JJJ	.	.	.
32C\LLL	.	8.c\	.
32A\	.	.	.
32F\	.	.	.
32C\	.	.	.
32A\	.	.	.
32F\JJJ	.	.	.
32C/LLL	8.d-X/	[8.A-X\J	.
32C/	.	.	.
32FF/	.	.	.
32CC/	.	.	.
32C/	.	.	.
32FF/JJJ	.	.	[
!!LO:LB:g=original
=142	=142	=142	=142
!	!	!	!LO:HP:a
32CC/LLL	4.e/	8.A-\L]	>
32C/	.	.	.
32GG/	.	.	.
32CC/	.	.	.
32C/	.	.	.
32GG/JJJ	.	.	.
32CC/LLL	.	8.G\	.
32C/	.	.	.
32GG/	.	.	.
32CC/	.	.	.
32C/	.	.	.
32GG/JJJ	.	.	.
32CC/LLL	8.B/	8.F\J	]
32C/	.	.	.
32AA-X/	.	.	.
32CC/	.	.	.
32C/	.	.	.
32AA-/JJJ	.	.	.
=143	=143	=143	=143
32CC/LLL	[8.E/L [8.c	4.ryy	.
32C/	.	.	.
32GG/	.	.	.
32CC/	.	.	.
32C/	.	.	.
32GG/JJJ	.	.	.
32CC/LLL	16E/L] 16c]	.	.
32C/	.	.	.
32GG/	(16bb-X/	.	.
32CC/	.	.	.
32C/	16b-X/JJ	.	.
32GG/JJJ	.	.	.
32CC/LLL	16d-X^/LL)	8.d-\	.
32C/	.	.	.
32GG/	(<16g/	.	.
32CC/	.	.	.
32C/	16G/JJ	.	.
32GG/JJJ	.	.	.
=144	=144	=144	=144
32CC/LLL	[8.c/L) [8.a	4.ryy	.
32C/	.	.	.
32FF#X/	.	.	.
32CC/	.	.	.
32C/	.	.	.
32FF#/JJJ	.	.	.
32CC/LLL	16c/L] 16a]	.	.
32C/	.	.	.
32FF#/	(16aa/	.	.
32CC/	.	.	.
32C/	16a/JJ	.	.
32FF#/JJJ	.	.	.
32CC/LLL	16c^/LL)	8.c\	.
32C/	.	.	.
32FF#/	(<16f#X/	.	.
32CC/	.	.	.
32C/	16F#X/JJ	.	.
32FF#/JJJ	.	.	.
!!LO:LB:g=original
=145	=145	=145	=145
!	!	!	!LO:HP:a
32CC/LLL	[8.B/L) [8.a-X	4.ryy	<
32C/	.	.	.
32FFn/	.	.	.
32CC/	.	.	.
32C/	.	.	.
32GG/JJJ	.	.	.
32CC/LLL	16B/L] 16a-]	.	.
32C/	.	.	.
32GG/	(16ff/	.	.
32CC/	.	.	.
32C/	16f/JJ	.	.
32GG/JJJ	.	.	.
32CC\LLL	16A-X^/LL)	8.A-\	.
32C\	.	.	.
32FF\	(16d/	.	.
32CC\	.	.	.
32C\	16D/JJ	.	.
32FF\JJJ	.	.	.
=146	=146	=146	=146
32CC\LLL	[>8.G</L) [<8.e	4.ryy	.
32C\	.	.	.
32GG\	.	.	.
32CC\	.	.	.
32C\	.	.	.
32GG\JJJ	.	.	.
32CC\LLL	16G</L] 16e]	.	.
32C\	.	.	.
32GG\	(>16g/	.	.
32CC\	.	.	.
32C\	16E</JJ	.	.
32GG\JJJ	.	.	.
32CC\LLL	16A-X^/LL)	8.A-\	.
32C\	.	.	.
32FF\	(16d/	.	.
32CC\	.	.	.
32C\	16D</JJ	.	.
32FF\JJJ	.	.	.
=147	=147	=147	=147
!	!	!	!LO:HP:a
32CC\LLL	[>8.G</L) [<8.e	4.ryy	[ >
32C\	.	.	.
32GG\	.	.	.
32CC\	.	.	.
32C\	.	.	.
32GG\JJJ	.	.	.
32CC\LLL	16G</L] 16e]	.	.
32C\	.	.	.
32GG\	16g/	.	.
32CC\	.	.	.
32C\	16E</JJ	.	.
32GG\JJJ	.	.	.
32CC\LLL	16A-X^/LL	8.A-\	.
32C\	.	.	.
32FF\	16d/	.	.
32CC\	.	.	.
32C\	16D</JJ	.	.
32FF\JJJ	.	.	.
*	*v	*v	*
!!LO:LB:g=original
=148	=148	=148
!	!LO:TX:b:t=mo_ _ _ren_ _ _do:ext=ud:problem:text with extention lines	!
32CC\LLL	[<8.G</L [<8.e	]
32C\	.	.
32GG\	.	.
32CC\	.	.
32C\	.	.
32GG\JJJ	.	.
32CC\LLL	8G</J] 8e]	.
32C\	.	.
32GG\	.	.
32CC\	.	.
32AA\	16r	.
32GG\JJJ	.	.
32CC\LLL	(>8.G</L 8.e	.
32C\	.	.
32GG\	.	.
32CC\	.	.
32C\	.	.
32GG\JJJ	.	.
=149	=149	=149
32CC\LLL	8.E</ [8.c<	.
32C\	.	.
32GG\	.	.
32CC\	.	.
32C\	.	.
32GG\JJJ	.	.
32CC\LLL	8E</J) 8c<]	.
32C\	.	.
32GG\	.	.
32CC\	.	.
32C\	16r<	.
32GG\JJJ	.	.
32CC\LLL	8.E</ 8.G< 8.c<	ppp
32C\	.	.
32GG\	.	.
32CC\	.	.
32C\	.	.
32GG\JJJ	.	.
=150	=150	=150
4CC;<\	4E<;>/ 4G< 4c<	.
==	==	==
*-	*-	*-
!!!system-decoration: {(s1,s2)}
!!!RDF**kern: < = below
!!!RDF**kern: > = above
!!!RDF**kern: N = linked
!!!ENC: Filip Voros
!!!END: 2022-03-09
!!!AIN: 1 piano
!!!ENC: Marta Chmielewska
!!!END: 2022-03-15
